!!!COM: Carl Czerny
!!!OTL: Praeludium et Fuga (d-Moll) op. 603/6
**kern	**kern	**kern
*part3	*part2	*part1
*staff3	*staff2	*staff1
*clefF4	*clefG2	*clefG2
*k[b-]	*k[b-]	*k[b-]
*M4/4	*M4/4	*M4/4
!	!	!LO:TX:a:i:t=Mit vollem Wercke
!	!	!LO:TX:a:iB:t=Maestoso
*^	*^	*^
1D	1DD	4r	4F 4A	4r	4f 4a
.	.	4d	4G 4B-y	4dd	4g 4b-y
.	.	4c# 4e	4A	4cc# 4ee	4a
*	*	*v	*v	*	*
*	*	*	*v	*v
.	.	4d 4f	4dd 4ff
=2	=2	=2	=2
*	*	*^	*^
1D	1DD	4r	4A	4r	4a
.	.	4d 4f	4A 4c	4dd 4ff	4a 4cc
.	.	4e- 4f#	4B-y	4ee- 4ff#	4b-y
*	*	*v	*v	*	*
*	*	*	*v	*v
.	.	4d 4g	4dd 4gg
=3	=3	=3	=3
*	*	*^	*^
1D	1DD	4r	4d	4r	4dd
.	.	4g 4b-y	4c#	4gg 4bb-y	4cc#
.	.	4en 4a	4B-y 4c#y	4een 4aa	4b-y 4cc#y
*	*	*v	*v	*	*
*	*	*	*v	*v
.	.	4e 4g	4ee 4gg
=4	=4	=4	=4
*	*	*^	*^
1D	1DD	4r	4A	4r	4a
.	.	4d 4f	4G# 4Bn	4dd 4ff	4g# 4bn
.	.	4d 4f	4Gn	4dd 4ff	4gn
*	*	*v	*v	*	*
*	*	*	*v	*v
.	.	4c# 4e	4cc# 4ee
=5	=5	=5	=5
*	*	*	*^
1F	[1DD	8dL	2.dd	2.a
.	.	8A	.	.
.	.	8Bn	.	.
.	.	8c#J	.	.
.	.	8dL	.	.
.	.	8A	.	.
.	.	8f	[4dd	[4a
.	.	8AJ	.	.
!!LO:LB
=6	=6	=6	=6	=6
1G	1DD_	8GL	4dd]	1a_
.	.	8f	.	.
.	.	8e	8cc#L	.
.	.	8dJ	8bnJ	.
.	.	8eL	4cc#y	.
.	.	8G	.	.
.	.	8c#	[4ee	.
.	.	8GJ	.	.
=7	=7	=7	=7	=7
1F	1DD_	8FL	8eeL]	1a]]
.	.	8f	8a	.
.	.	8g	8bn	.
.	.	8eJ	8cc#J	.
.	.	8fL	8ddL	.
.	.	8F	8a	.
.	.	8d	8ff	.
.	.	8FJ	[8aJ	.
=8	=8	=8	=8	=8
*	*	*^	*	*
1E	1DD_	8GL	1G	[1a	8r
.	.	8d	.	.	8ffL
.	.	8c#	.	.	8ee
.	.	8BnJ	.	.	8ddJ
.	.	8c#yL	.	.	8eeL
.	.	8A	.	.	8a
.	.	8e	.	.	8gg
.	.	8c#yJ	.	.	8aJ
*v	*v	*	*	*	*
=9	=9	=9	=9	=9
8DD]	4d	4F	2a]	[1ff
8DL	.	.	.	.
*	*v	*v	*	*
8C#	4r	.	.
8DJ	.	.	.
8BB-L	2r	4g#	.
8D	.	.	.
8AA	.	4a	.
8DJ	.	.	.
!!LO:LB
=10	=10	=10	=10
*	*^	*	*
1GG#	4r	[4E	[2bn	8ffL]
.	.	.	.	8ff
.	4E	2E]	.	8ee
.	.	.	.	8dd#J
.	2Bn	.	8b]	8eeL
.	.	.	4.b	8bn
*	*v	*v	*	*
.	.	.	8bbn
.	.	.	8ddnJ
=11	=11	=11	=11
*	*^	*	*
8AAL	4A 4e	4E	4cc	4a
8C	.	.	.	.
*	*v	*v	*	*
8BBn	4r	4r	4f#
8CJ	.	.	.
8AAL	2r	[2ee-	4g
8C	.	.	.
*	*	*v	*v
8GG	.	.
8CJ	.	.
=12	=12	=12
*	*^	*^
1FF#	4r	[4D	8ee-yL]	[2a
.	.	.	8ee-	.
.	4D	2D]	8dd	.
.	.	.	8cc#J	.
.	2A	.	8ddL	8a]
.	.	.	8a	4.a
*	*v	*v	*	*
.	.	8aa	.
.	.	8ccnJ	.
=13	=13	=13	=13
*	*^	*	*
4GG	4G	4D	8b-yL	1b-y
.	.	.	8aa	.
4r	4G	[4G	8gg	.
.	.	.	8ff#J	.
2r	2e-	2G]	8ggL	.
.	.	.	8b-y	.
.	.	.	8gg	.
.	.	.	8b-yJ	.
!!LO:LB
=14	=14	=14	=14	=14
2F	8FL	2r	8a-L	1a-y
.	8e-	.	8gg	.
.	8d	.	8ff	.
.	8c#J	.	8eeJ	.
2BB-y	2d	4F	8ffL	.
.	.	.	8a-y	.
.	.	4F	8ff	.
.	.	.	8a-yJ	.
=15	=15	=15	=15	=15
4EE-	8E-L	1E-y	8gL	1g
.	8d	.	8ff	.
4r	8c	.	8ee-	.
.	8BnJ	.	8ddJ	.
2r	2c	.	8ee-yL	.
.	.	.	8g	.
.	.	.	8ee-y	.
.	.	.	8gJ	.
=16	=16	=16	=16	=16
2r	8DL	2.D	8fL	1f
.	8c	.	8ee-	.
.	8Bn	.	8dd	.
.	8AJ	.	8ccJ	.
2GG	2B	.	8ddL	.
.	.	.	8f	.
.	.	4D	8dd	.
.	.	.	8fJ	.
=17	=17	=17	=17	=17
8CC	8c	8CL	4r	2e-
8r	8r	8E-	.	.
4r	4r	8A-	2cc	.
.	.	8GJ	.	.
2DD	2r	8F#L	.	[2d
.	.	8An	.	.
.	.	8D	8ddL	.
.	.	8F#yJ	8ccJ	.
*	*v	*v	*	*
=18	=18	=18	=18
8GG	8GL	4b-y	4d]
8r	8B-y	.	.
4r	8e-	2gg	4b-y
.	8dJ	.	.
2AA	8c#L	.	[2a
.	8en	.	.
.	8A	8aaL	.
.	8c#yJ	8ggJ	.
=19	=19	=19	=19
8D	8dL	4ff	4a]
8r	8F	.	.
4r	8B-y	2dd	4f
.	8AJ	.	.
2EE	8G#L	.	[2en
.	8Bn	.	.
.	8E	8eeL	.
.	8G#yJ	8ddJ	.
=20	=20	=20	=20
8AA	8AL	4cc	4e]
8r	8c	.	.
4r	8f	2aa	4cc
.	8eJ	.	.
2BBn	8d#L	.	[2bn
.	8f#	.	.
.	8Bn	8bbnL	.
.	8d#yJ	8aaJ	.
=21	=21	=21	=21
4E	8eL	4gg	8bL]
.	8dn	.	8b-J
4AA	8c#	8aaL	[4a
.	8eJ	8ggJ	.
4D	8dL	4ff	8aL]
.	8cn	.	8a-J
4GG	8Bn	8ggL	[4g
.	8dJ	8ffJ	.
!!LO:LB
=22	=22	=22	=22
4C	8cL	4ee	4g]
.	8Bn	.	.
4FF	8A	8ffL	[4f
.	8cJ	8eeJ	.
4BBn	8BL	4dd	8fL]
.	8A	.	8fJ
4EE	8G#	8eeL	[4e
.	8BJ	8ddJ	.
=23	=23	=23	=23
*	*	*	*^
1AA	8AL	4cc	2e]	2r
.	8E	.	.	.
.	8A	4cc#	.	.
.	8GnJ	.	.	.
.	8FL	4dd	[2a	4d
.	8A	.	.	.
.	8C#	4ee	.	4g
.	8AJ	.	.	.
=24	=24	=24	=24	=24
[1D	8DL	[1ff	4a]	[1f
.	8d	.	.	.
.	8cn	.	4a	.
.	8dJ	.	.	.
.	8BnL	.	4g#	.
.	8d	.	.	.
.	8A	.	4a	.
.	8dJ	.	.	.
=25	=25	=25	=25	=25
2D]	2G#	2ff]	2bn	2f]
2r	2r	2r	2r	1%0ryy
*	*	*	*v	*v
!!LO:LB
=26	=26	=26	=26
*	*^	*	*
4.GG#	4.D 4.F	4.GG# 4.BBn	4.dd 4.ff	4.f 4.bn
8r	8r	4.GGn 4.BB-	8r	4.e 4.b-
4.GGn	4.C# 4.E	.	4.cc# 4.ee	.
*	*v	*v	*	*
.	.	.	1%0ryy
*	*	*v	*v
8r	8r	8r
=27	=27	=27
*	*^	*^
*	*	*	*	*^
4.FF	4.AA 4.D	4.FF	4.a 4.dd	4.d	2d
8r	8r	2D	8r	4f	.
*	*	*	*	*v	*v
2BB-y	4F	.	2dd	.
.	.	.	.	4g
.	4G	.	.	.
=28	=28	=28	=28	=28
2AA;	2F;	2D	2a 2dd	2d; 2f;
2AA;	2A;	2E	2a 2cc#	2e;
*	*v	*v	*	*
*	*	*v	*v
!!LO:LB
=29	=29	=29
!	!	!LO:TX:a:iB:t=Moderato
!	!	!LO:TX:a:i:t=[Fuge]
1r	2D	1r
.	2A	.
=30	=30	=30
1r	4G	1r
.	4F	.
.	4E	.
.	4D	.
=31	=31	=31
1r	2C#	1r
.	2B-y	.
=32	=32	=32
1r	2.A	1r
.	[4G	.
=33	=33	=33
1r	4G]	1r
.	8FL	.
.	8EJ	.
.	4F	.
.	4D	.
=34	=34	=34
1r	1ET	1r
=35	=35	=35
*	*^	*
1r	2A	4D	1r
.	.	4E	.
.	[2d	4F#	.
.	.	4G#	.
!!LO:LB
=36	=36	=36	=36
1r	4d]	4A	1r
.	4cn	4AA	.
.	4Bn	4BBn	.
.	4A	4C	.
=37	=37	=37	=37
1r	2G#	4BBn	1r
.	.	8DL	.
.	.	8CJ	.
.	2f	4BB	.
.	.	4AA	.
=38	=38	=38	=38
1r	2.e	4GG#	1r
.	.	4BBn	.
.	.	4E	.
.	[4d	4GG#y	.
=39	=39	=39	=39
1r	4d]	2.AA	1r
.	8cL	.	.
.	8BnJ	.	.
.	4c	.	.
.	4A	4F	.
=40	=40	=40	=40
1r	1BnT	4D	1r
.	.	4BBn	.
.	.	4G#	.
.	.	4E	.
=41	=41	=41	=41
1r	2.c	4AA	1r
.	.	8AL	.
.	.	8G#J	.
.	.	[2A	.
.	8dL	.	.
.	8cJ	.	.
=42	=42	=42	=42
1r	2.B-	4A]	1r
.	.	8GnL	.
.	.	8F#J	.
.	.	2G	.
.	8cL	.	.
.	8B-yJ	.	.
=43	=43	=43	=43
*	*	*	*^
1r	4A	4F	1r	2d
.	4F	4D	.	.
.	4E	4C#	.	2a
.	4c#	4AA	.	.
=44	=44	=44	=44	=44
1r	4d	2D	1r	4g
.	4A	.	.	4f
.	4G	4E	.	4e
.	4A	4F	.	4d
=45	=45	=45	=45	=45
1r	4G	4E	1r	2c#
.	8B-yL	8GL	.	.
.	8AJ	8FJ	.	.
.	4G	4E	.	2b-y
.	4F	4D	.	.
!!LO:LB
=46	=46	=46	=46	=46
1r	4E	4C#	1r	2.a
.	4c#	4AA	.	.
.	4d	4BBn	.	.
.	4e	4C#y	.	[4g
=47	=47	=47	=47	=47
1r	2A	2D	1r	4g]
.	.	.	.	8fL
.	.	.	.	8eJ
.	[2d	4BB-	.	4f
.	.	4B-y	.	4d
=48	=48	=48	=48	=48
1r	2d]	4G	1r	1eT
.	.	8FL	.	.
.	.	8EJ	.	.
.	2c#	4A	.	.
.	.	4G	.	.
=49	=49	=49	=49	=49
1r	2.A	4F	2a	4d
.	.	4D	.	2f
.	.	4BBn	[2dd	.
.	4G#	4E	.	[4e
=50	=50	=50	=50	=50
1r	2A	4AA	4dd]	2e]
.	.	4A	4cc	.
.	4d	4D	4bn	4f
.	4c	4D#	4a	4f#
!!LO:LB
=51	=51	=51	=51	=51
1r	4Bn	4E	2g#	2.g#
.	8fL	8dL	.	.
.	8eJ	8cJ	.	.
.	4d	4Bn	2ff	.
.	4c	4A	.	4a
=52	=52	=52	=52	=52
1r	4Bn	4G#	2.ee	4bn
.	[4e	4E	.	4g#
.	2e_	4F#	.	4a
.	.	4G#y	[4dd	4b
=53	=53	=53	=53	=53
1r	2.e]	2.A	4dd]	[1a
.	.	.	8ccL	.
.	.	.	8bnJ	.
.	.	.	4cc	.
.	[4f	4Fn	4a	.
=54	=54	=54	=54	=54
1r	4f]	4D	[1b-	2a]
.	8eL	8CL	.	.
.	8dJ	8BB-J	.	.
.	4g	4E	.	2g
.	4e	4C	.	.
=55	=55	=55	=55	=55
1r	2.c	2.F	4b-y]	2.f
.	.	.	8aL	.
.	.	.	8gJ	.
.	.	.	4a	.
.	4c	4AA	4f	[4f
!!LO:LB
=56	=56	=56	=56	=56
1r	4d	4BBn	[1g	2f]
.	8cL	8AAL	.	.
.	8BnJ	8GGJ	.	.
.	4e	4C#	.	2e
.	4c#	4AA	.	.
=57	=57	=57	=57	=57
!LO:TX:a:i:t=[Ped. 16 Fuß]	!	!	!	!
2D	1A	2D	4g]	2.d
.	.	.	4f	.
2A	.	2A	4e	.
.	.	.	4a	4c#
=58	=58	=58	=58	=58
4G	4c#	4G	4b-y	4e
4F	4d	4F	4a	4f
4E	2A	4E	4cc#	4g
4D	.	4D	4dd	4f
=59	=59	=59	=59	=59
2C#	2B-	2C#	4ff	2.g
.	.	.	8eeL	.
.	.	.	8dd#J	.
2B-y	4c#	2B-y	4ee	.
.	4d	.	[4ddn	4g#
=60	=60	=60	=60	=60
2.A	4.e	2.A	4dd]	2.a
.	.	.	8cc#L	.
.	8d	.	8bnJ	.
.	4e	.	4cc#y	.
[4G	[4c#	[4G	4ee	4b-
!!LO:LB
=61	=61	=61	=61	=61
4G	2c#y]	4G]]	2.aa	1a
8FL	.	8FL	.	.
8EJ	.	8EJ	.	.
4F	[2d	4F	.	.
4D	.	4D	8ggL	.
.	.	.	8ffJ	.
=62	=62	=62	=62	=62
2E	4d]	2E	2.gg	1g
.	8c#L	.	.	.
.	8BnJ	.	.	.
2A	2c#y	2A	.	.
.	.	.	8ffL	.
.	.	.	8eeJ	.
=63	=63	=63	=63	=63
4D	2.d	4D	2.ff	4f
4r	.	8E-L	.	8gL
.	.	8FJ	.	8aJ
2r	.	2G	.	[2b-y
.	8cnL	.	8ee-L	.
.	8B-yJ	.	8ddJ	.
=64	=64	=64	=64	=64
1r	4.c	2C	2.ee-	4b-y]
.	.	.	.	8aL
.	8B-y	.	.	8gJ
.	2A	4F	.	[2f
.	.	4E-	8ddL	.
.	.	.	8ccJ	.
=65	=65	=65	=65	=65
1r	4B-y	4D	2b-y	2f]
.	4d	4B-y	.	.
.	2c	4A	2ff	4cc
.	.	4F	.	4a
!!LO:LB
=66	=66	=66	=66	=66
1r	2B-y	4G	4ee-	4b-y
.	.	4D	4dd	4f
.	4G	4E-	4cc	2g
.	4c	4En	4b-y	.
=67	=67	=67	=67	=67
1r	[1c	4F	2a	2f
.	.	8CL	.	.
.	.	8DJ	.	.
.	.	4E-	2gg	2a
.	.	4E-y	.	.
=68	=68	=68	=68	=68
1r	4c]	2.D	2.ff	2.a-
.	4c	.	.	.
.	4Bn	.	.	.
.	4c	4E-	[4ee-	4g
=69	=69	=69	=69	=69
1r	2A-	2.F	4ee-y]	2.a-
.	.	.	8ddL	.
.	.	.	8cc#J	.
.	4f	.	4dd	.
.	4e-	4F#	4ccn	4an
=70	=70	=70	=70	=70
1r	4d	1G	2.bn	4g
.	4fn	.	.	4a-
.	4e-	.	.	4g
.	4d	.	[4ff	4bn
=71	=71	=71	=71	=71
1r	2.c	2C	4ff]	4cc
.	.	.	8ee-L	[4g
.	.	.	8ddJ	.
.	.	4c	4ee-y	4g]
.	4d	4B-	4dd	4g#
=72	=72	=72	=72	=72
1r	4en	1A	1cc#	4a
.	4gn	.	.	4b-
.	4f	.	.	4a
.	4e	.	.	4gn
=73	=73	=73	=73	=73
1r	4d	4D	2dd	2f
.	4d	4r	.	.
.	4c#	2r	2aa	4e
.	4A	.	.	4cc#
=74	=74	=74	=74	=74
1r	4B-y	1r	4gg	4dd
.	4F	.	4ff	4a
.	4G	.	4ee	4b-y
.	4G#	.	4dd	4bn
=75	=75	=75	=75	=75
1r	4A	1r	2cc#	4e
.	8gL	.	.	8b-L
.	8fJ	.	.	8aJ
.	4e	.	2bb-y	4g
.	4d	.	.	4f
!!LO:LB
=76	=76	=76	=76	=76
1r	4c#	1r	2.aa	4e
.	4A	.	.	4cc#
.	4Bn	.	.	4dd
.	4c#y	.	[4gg	4ee
=77	=77	=77	=77	=77
*	*	*	*	*^
!!Error: measure 77, staff 2 is underfilled: adding token 2.ryy at end of measure to complete its duration.
2D	4e	2D	4gg]	2dd	2a
.	2.ryy	.	4ff	.	.
2A	.	2A	4ee	4cc#	4g
.	.	.	[4cc#	4a	1%0ryy
=78	=78	=78	=78	=78	=78
!!Error: measure 78, staff 2 is underfilled: adding token 2ryy at end of measure to complete its duration.
4G	4e]	4G	4cc#y]	4b-y	4g
4F	4f	4F	4dd	4a	4a
*	*	*	*	*v	*v
4E	2ryy	4E	4ee	4cc#
4D	.	4D	(>4ff	4dd
=79	=79	=79	=79	=79
*	*	*	*	*^
!!Error: measure 79, staff 2 is underfilled: adding token 2ryy at end of measure to complete its duration.
2C#	2g	2C#	2.gg	4ff)	2b-y
.	.	.	.	8eeL	.
.	.	.	.	8dd#J	.
2B-y	2ryy	2B-y	.	4ee	1%0ryy
*	*	*	*	*v	*v
.	.	.	[4gg	4ddn
=80	=80	=80	=80	=80
2.A	2.a	2.A	4gg]	2.cc#
.	.	.	8ffL	.
.	.	.	8eeJ	.
.	.	.	4aa	.
[4G	4e	[4G	4cc#	[4a
!!LO:LB
=81	=81	=81	=81	=81
4G	4c#	4G]]	4ee	4a]
8FL	2d	8FL	2dd	2a
8EJ	.	8EJ	.	.
4F	.	4F	.	.
4D	[4d	4D	[4ff	4a
=82	=82	=82	=82	=82
1r	2.d]	4G	4ff]	2.b-y
.	.	8GL	2ee	.
.	.	8F#J	.	.
.	.	4G	.	.
.	4d	4B-y	[4gg	4g
=83	=83	=83	=83	=83
1r	2.e-	4A	4gg]	2.cc
.	.	8AL	2ff#	.
.	.	8G#J	.	.
.	.	4A	.	.
.	4f#	[4c	4aa	4ee-
=84	=84	=84	=84	=84
1r	4a	4c]	4ff#	4ee-
.	4g	4B-y	4gg	2dd
.	4fn	4A	4aa	.
.	[4e	[4G	4bb-y	[4cc#
=85	=85	=85	=85	=85
1r	4e]	4G]	4cc#]	4b-
.	4d	4F	4dd	4a
.	4c#	4E	4ee	4g
.	4d	[4D	4ff	[4f
!!LO:LB
=86	=86	=86	=86	=86
1r	4Bn	4D]	4g#	4f]
.	8AL	4C#	[4a	4e
.	8GnJ	.	.	.
.	4F#	2Cn	4a]	2e-
.	4A	.	8gnL	.
.	.	.	8f#J	.
=87	=87	=87	=87	=87
1r	4G	2BBn	2g	2.d
.	8DL	.	.	.
.	8EJ	.	.	.
.	4F	2BB-	2g#	.
.	8EL	.	.	4e
.	8DJ	.	.	.
=88	=88	=88	=88	=88
[1AA	2.d	2D	1a	4f
.	.	.	.	8gL
.	.	.	.	8fJ
.	.	2A	.	[2e
.	[4c#	.	.	.
=89	=89	=89	=89	=89
*	*	*	*	*^
!!Error: measure 89, staff 2 is underfilled: adding token 4ryy at end of measure to complete its duration.
1AA_	4c#y]	4G	4b-y	4e]	4f
*	*	*	*	*v	*v
.	4d	4F	4a	4f
.	4e	4E	4cc#	4g
.	4ryy	4D	4dd	4a
!!LO:LB
=90	=90	=90	=90	=90
*	*	*	*	*^
!!Error: measure 90, staff 2 is underfilled: adding token 2ryy at end of measure to complete its duration.
1AA_	2e	2C#	4ff	2b-y	2g
.	.	.	2ee	.	.
.	2ryy	2B-y	.	[2g	1%0ryy
*	*	*	*	*v	*v
.	.	.	[4dd	.
=91	=91	=91	=91	=91
1AA_	2e]	2.A	4dd]	2g]
.	.	.	2cc#	.
.	2c#	.	.	2e
.	.	4G	4b-	.
=92	=92	=92	=92	=92
1AA_	1A	4F	[1a	4d
.	.	4A	.	4f
.	.	4G	.	4e
.	.	4F	.	[4d
=93	=93	=93	=93	=93
1AA]	[1G	[1E	1a_	4d]
.	.	.	.	4c#
.	.	.	.	4Bn
.	.	.	.	4c#y
=94	=94	=94	=94	=94
*	*	*	*	*^
[1DD [1D	1G]	1E]	1a_	1c#	[1A
=95	=95	=95	=95	=95	=95
4DD] 4D]	4F	4D	4a]	4d	4A]
*	*v	*v	*	*	*
4r	4r	4r	1%0ryy	1%0ryy
*	*	*v	*v	*v
2r	2r	2r
==	==	==
*-	*-	*-
!!!RDF**kern: > = above
